meat/img/sprite/instagram.svg

<svg width="30" height="31" viewBox="0 0 30 31" fill="none" xmlns="http://www.w3.org/2000/svg">
<path d="M14.5887 7.32725C10.4454 7.32725 7.10143 10.7757 7.10143 15.0487C7.10143 19.3216 10.4454 22.7701 14.5887 22.7701C18.7321 22.7701 22.076 19.3216 22.076 15.0487C22.076 10.7757 18.7321 7.32725 14.5887 7.32725ZM14.5887 20.0671C11.9092 20.0671 9.72254 17.812 9.72254 15.0487C9.72254 12.2854 11.9092 10.0303 14.5887 10.0303C17.2683 10.0303 19.4549 12.2854 19.4549 15.0487C19.4549 17.812 17.2683 20.0671 14.5887 20.0671ZM22.3827 5.21148C21.4153 5.21148 20.6341 6.01713 20.6341 7.01478C20.6341 8.01243 21.4153 8.81808 22.3827 8.81808C23.3501 8.81808 24.1313 8.0162 24.1313 7.01478C24.1316 6.77789 24.0866 6.54326 23.9988 6.32434C23.911 6.10542 23.7822 5.90651 23.6198 5.739C23.4574 5.57149 23.2645 5.43867 23.0522 5.34815C22.8399 5.25763 22.6124 5.21119 22.3827 5.21148V5.21148ZM29.1837 15.0487C29.1837 12.9706 29.202 10.9113 29.0888 8.83691C28.9756 6.42749 28.4426 4.28913 26.7342 2.52724C25.0221 0.761592 22.9522 0.215708 20.6158 0.0990023C18.6007 -0.0177038 16.6039 0.00111979 14.5924 0.00111979C12.5773 0.00111979 10.5804 -0.0177038 8.56896 0.0990023C6.2326 0.215708 4.15908 0.765357 2.45061 2.52724C0.7385 4.29289 0.209168 6.42749 0.0960005 8.83691C-0.017167 10.915 0.00108584 12.9743 0.00108584 15.0487C0.00108584 17.123 -0.017167 19.1861 0.0960005 21.2605C0.209168 23.6699 0.74215 25.8082 2.45061 27.5701C4.16273 29.3358 6.2326 29.8817 8.56896 29.9984C10.5841 30.1151 12.5809 30.0963 14.5924 30.0963C16.6075 30.0963 18.6044 30.1151 20.6158 29.9984C22.9522 29.8817 25.0257 29.332 26.7342 27.5701C28.4463 25.8045 28.9756 23.6699 29.0888 21.2605C29.2056 19.1861 29.1837 17.1268 29.1837 15.0487V15.0487ZM25.9712 23.9259C25.7047 24.6111 25.3835 25.1231 24.8687 25.6501C24.354 26.1809 23.8612 26.5122 23.1968 26.7871C21.2766 27.5739 16.717 27.397 14.5887 27.397C12.4605 27.397 7.89726 27.5739 5.97706 26.7908C5.31266 26.516 4.81618 26.1847 4.3051 25.6539C3.79037 25.1231 3.46912 24.6148 3.20263 23.9296C2.44331 21.9456 2.61489 17.2435 2.61489 15.0487C2.61489 12.8539 2.44331 8.14796 3.20263 6.16772C3.46912 5.48255 3.79037 4.97054 4.3051 4.44348C4.81983 3.91642 5.31266 3.58136 5.97706 3.30654C7.89726 2.52348 12.4605 2.70042 14.5887 2.70042C16.717 2.70042 21.2802 2.52348 23.2004 3.30654C23.8648 3.58136 24.3613 3.91266 24.8724 4.44348C25.3871 4.97431 25.7084 5.48255 25.9749 6.16772C26.7342 8.14796 26.5626 12.8539 26.5626 15.0487C26.5626 17.2435 26.7342 21.9456 25.9712 23.9259Z" fill="#ED3F5E"/>
</svg>

<svg width="30" height="31" fill="none" xmlns="http://www.w3.org/2000/svg"><path d="M14.589 7.327c-4.144 0-7.488 3.449-7.488 7.722 0 4.273 3.344 7.721 7.488 7.721 4.143 0 7.487-3.448 7.487-7.721s-3.344-7.722-7.487-7.722zm0 12.74c-2.68 0-4.866-2.255-4.866-5.018 0-2.764 2.186-5.019 4.866-5.019 2.68 0 4.866 2.255 4.866 5.019 0 2.763-2.187 5.018-4.866 5.018zm7.794-14.856c-.968 0-1.749.806-1.749 1.804 0 .997.781 1.803 1.749 1.803.967 0 1.748-.802 1.748-1.803a1.85 1.85 0 0 0-.132-.69 1.807 1.807 0 0 0-.38-.586 1.743 1.743 0 0 0-.567-.39 1.7 1.7 0 0 0-.67-.138zm6.8 9.838c0-2.078.019-4.138-.094-6.212-.113-2.41-.646-4.548-2.355-6.31C25.022.762 22.952.216 20.616.1 18.6-.018 16.604.001 14.592.001 12.577.001 10.58-.018 8.57.1c-2.336.117-4.41.666-6.118 2.428C.739 4.293.209 6.427.096 8.837c-.113 2.078-.095 4.137-.095 6.212 0 2.074-.018 4.137.095 6.212.113 2.409.646 4.547 2.355 6.31 1.712 1.765 3.782 2.31 6.118 2.427 2.015.117 4.012.098 6.023.098 2.016 0 4.012.02 6.024-.098 2.336-.116 4.41-.666 6.118-2.428 1.712-1.765 2.242-3.9 2.355-6.31.117-2.074.095-4.133.095-6.211zm-3.212 8.877a4.797 4.797 0 0 1-1.102 1.724 4.662 4.662 0 0 1-1.672 1.137c-1.92.787-6.48.61-8.608.61-2.129 0-6.692.177-8.612-.606a4.63 4.63 0 0 1-1.672-1.137 4.831 4.831 0 0 1-1.102-1.724c-.76-1.984-.588-6.686-.588-8.881 0-2.195-.172-6.901.588-8.881a4.799 4.799 0 0 1 1.102-1.725 4.71 4.71 0 0 1 1.672-1.136c1.92-.784 6.483-.607 8.612-.607 2.128 0 6.691-.177 8.611.607a4.63 4.63 0 0 1 1.672 1.136c.515.531.836 1.04 1.103 1.725.76 1.98.588 6.686.588 8.88 0 2.196.171 6.898-.592 8.878z" fill="#ED3F5E"/></svg>
